X:90
T:J. T. Burbank's Q.S.
S:American Veteran Fifer #90
C:To J.T. Burbank Drummer 6th Pa.Res By A.F. Hopkins Fife Major
M:2/4
L:1/8
Q:1/8=180
K:D 
%%MIDI program 72
%%MIDI transpose 8
%%MIDI ratio 3 1
A | F/A/d dc/d/ | e/c/A/c/ dc/d/ | e/c/A/c/ d/e/f/d/ | g/e/a/g/ b/g/e/c/ |
d/e/c/e/ dd/d/ | e/c/A/c/ dc/d/ | f/a/g/e/ b/g/e/c/ | dfd :|
| d |: Aa f2- | fA/d/ f/A/d/f/ | Af d2- | dF/A/ d/F/A/d/ | 
e/c/A/c/ dc/d/ | e/c/A/c/ dc/d/ |[1 e/c/A/c/ d/e/f/d/ | g/e/a/g/ b/g/e/c/ :|[2 f/a/g/e/ b/g/e/c/ | dfdz |



